X: 11282
T: Dying Swan, The
R: mazurka
M: 3/4
K: Gmajor
|:G2F3 B,|E2 D3 G,|A,B, CD EF|B3 d ef|
g2f3 B|e2 d3 G|AB cd ef|1 b4 d2|2 g4 c2:|
g3 g fd|ec E3 d|BG FD B,G,|C4 D2|
B,C DE FG|EF GA B(c|c2) b2f2|g6|
g3 g fd|Bc b3 a|gf dc BG|E6|
A,B, CD EF|DE FG AB|e4 d2|G6||

